components/ui-node-icon/src/filter/filter.small.svg

<svg width="16" height="16" viewBox="0 0 16 16" fill="none" xmlns="http://www.w3.org/2000/svg">
  <path fill-rule="evenodd" clip-rule="evenodd" d="M2.30272 4.4C1.56108 3.41115 2.26666 2 3.50272 2H11.5027C12.7388 2 13.4444 3.41115 12.7027 4.4L9.30272 8.93333C9.10799 9.19298 9.00272 9.50878 9.00272 9.83333V12.6315C9.00272 13.133 8.75207 13.6014 8.33477 13.8796L6.78007 14.916C6.62665 15.0183 6.42937 15.0278 6.26679 14.9408C6.10422 14.8538 6.00272 14.6844 6.00272 14.5V9.83333C6.00272 9.50878 5.89746 9.19298 5.70272 8.93333L2.30272 4.4ZM3.50272 3C3.0907 3 2.85551 3.47038 3.10272 3.8L6.50272 8.33333C6.82728 8.76607 7.00272 9.29241 7.00272 9.83333V13.5657L7.78007 13.0475C7.91917 12.9548 8.00272 12.7987 8.00272 12.6315V9.83333C8.00272 9.29241 8.17817 8.76607 8.50272 8.33333L11.9027 3.8C12.1499 3.47038 11.9147 3 11.5027 3H3.50272Z" fill="currentColor"/>
</svg>

<svg xmlns="http://www.w3.org/2000/svg" width="16" height="16" fill="none" viewBox="0 0 16 16">
  <path fill="currentColor" fill-rule="evenodd" d="M2.303 4.4C1.56 3.411 2.267 2 3.503 2h8c1.236 0 1.941 1.411 1.2 2.4l-3.4 4.533a1.5 1.5 0 0 0-.3.9v2.799c0 .501-.25.97-.668 1.248L6.78 14.916a.5.5 0 0 1-.777-.416V9.833a1.5 1.5 0 0 0-.3-.9L2.303 4.4Zm1.2-1.4a.5.5 0 0 0-.4.8l3.4 4.533c.324.433.5.96.5 1.5v3.733l.777-.519a.5.5 0 0 0 .223-.415V9.833a2.5 2.5 0 0 1 .5-1.5l3.4-4.533a.5.5 0 0 0-.4-.8h-8Z" clip-rule="evenodd"/>
</svg>
